iconen/gevaarlijkestof/3.svg

<?xml version="1.0" encoding="UTF-8" standalone="no"?>
<!-- Created with Inkscape (http://www.inkscape.org/) -->

<svg
   xmlns:dc="http://purl.org/dc/elements/1.1/"
   xmlns:cc="http://creativecommons.org/ns#"
   xmlns:rdf="http://www.w3.org/1999/02/22-rdf-syntax-ns#"
   xmlns:svg="http://www.w3.org/2000/svg"
   xmlns="http://www.w3.org/2000/svg"
   xmlns:sodipodi="http://sodipodi.sourceforge.net/DTD/sodipodi-0.dtd"
   xmlns:inkscape="http://www.inkscape.org/namespaces/inkscape"
   version="1.0"
   width="125"
   height="125"
   viewBox="0 0 93.750003 93.750004"
   id="svg8"
   sodipodi:docname="3.svg"
   inkscape:version="0.92.5 (2060ec1f9f, 2020-04-08)"
   inkscape:export-filename="/media/juhele/data_2TB/_GRAFIKA/GHS hazard symbols/GHS03_oxidizing_substances.png"
   inkscape:export-xdpi="99.027519"
   inkscape:export-ydpi="99.027519">
  <title
     id="title821">Globally Harmonized System of Classification and Labelling of Chemicals (GHS) pictogram for oxidizing substances</title>
  <metadata
     id="metadata14">
    <rdf:RDF>
      <cc:Work
         rdf:about="">
        <dc:format>image/svg+xml</dc:format>
        <dc:type
           rdf:resource="http://purl.org/dc/dcmitype/StillImage" />
        <dc:title>Globally Harmonized System of Classification and Labelling of Chemicals (GHS) pictogram for oxidizing substances</dc:title>
        <dc:description>Official hazard symbols according to directive (EC) No 1272/2008 by the European Chemicals Bureau 
The Globally Harmonized System of Classification and Labelling of Chemicals (GHS) is an internationally agreed-upon standard managed by the United Nations that was set up to replace the assortment of hazardous material classification and labelling schemes previously used around the world.
https://en.wikipedia.org/wiki/Globally_Harmonized_System_of_Classification_and_Labelling_of_Chemicals

symbols (Public Domain)
https://commons.wikimedia.org/wiki/GHS_hazard_symbols</dc:description>
        <dc:source>EPS file rondflam.eps from UNECE web site converted with ImageMagick convert and with potrace, edited and flame redrawn in inkscape</dc:source>
        <dc:subject>
          <rdf:Bag>
            <rdf:li>GHS</rdf:li>
            <rdf:li>explosive</rdf:li>
            <rdf:li>flammable</rdf:li>
            <rdf:li>gas</rdf:li>
            <rdf:li>corrosive</rdf:li>
            <rdf:li>acid</rdf:li>
            <rdf:li>harmful</rdf:li>
            <rdf:li>health</rdf:li>
            <rdf:li>pollution</rdf:li>
            <rdf:li>contamination</rdf:li>
            <rdf:li>nature</rdf:li>
            <rdf:li>toxic</rdf:li>
            <rdf:li>hazard</rdf:li>
            <rdf:li>warning</rdf:li>
            <rdf:li>label</rdf:li>
            <rdf:li>chemical</rdf:li>
            <rdf:li>pictogram</rdf:li>
            <rdf:li>symbol</rdf:li>
            <rdf:li>danger</rdf:li>
          </rdf:Bag>
        </dc:subject>
        <cc:license
           rdf:resource="http://creativecommons.org/publicdomain/zero/1.0/" />
      </cc:Work>
      <cc:License
         rdf:about="http://creativecommons.org/publicdomain/zero/1.0/">
        <cc:permits
           rdf:resource="http://creativecommons.org/ns#Reproduction" />
        <cc:permits
           rdf:resource="http://creativecommons.org/ns#Distribution" />
        <cc:permits
           rdf:resource="http://creativecommons.org/ns#DerivativeWorks" />
      </cc:License>
    </rdf:RDF>
  </metadata>
  <defs
     id="defs12" />
  <sodipodi:namedview
     pagecolor="#ffffff"
     bordercolor="#666666"
     borderopacity="1"
     objecttolerance="10"
     gridtolerance="10"
     guidetolerance="10"
     inkscape:pageopacity="0"
     inkscape:pageshadow="2"
     inkscape:window-width="1920"
     inkscape:window-height="1017"
     id="namedview10"
     showgrid="false"
     units="px"
     fit-margin-top="10"
     fit-margin-left="10"
     fit-margin-bottom="10"
     fit-margin-right="10"
     inkscape:zoom="0.61139896"
     inkscape:cx="-479.37891"
     inkscape:cy="237.20354"
     inkscape:window-x="-8"
     inkscape:window-y="-8"
     inkscape:window-maximized="1"
     inkscape:current-layer="svg8" />
  <g
     id="g836"
     transform="matrix(0.08602378,0,0,0.08603095,21.983858,21.954267)">
    <path
       id="path819-3"
       style="fill:#ffffff;stroke:none"
       d="M 25.301165,289.67172 289.32987,553.70044 553.40261,289.6277 C 465.35022,201.6757 377.47182,113.54942 289.3739,25.643024 Z"
       inkscape:connector-curvature="0" />
    <path
       id="path821"
       style="fill:#ff0000;stroke:none"
       d="M 147.65941,148.01233 6,289.67173 147.66886,431.34059 289.32827,573 431.01602,431.31224 572.70378,289.62449 431.06327,147.98398 C 353.16571,70.086424 289.40386,6.34347 289.37551,6.34347 c -0.0284,0 -63.79965,63.752403 -141.7161,141.66886 z M 408.62189,170.42535 527.82103,289.62449 408.5652,408.88032 289.31882,528.1267 170.12913,408.87087 50.939444,289.61504 170.13858,170.41591 C 235.69574,104.85874 289.34716,51.22622 289.37551,51.22622 c 0.0283,0 53.68922,53.64197 119.24638,119.19913 z"
       inkscape:connector-curvature="0" />
    <path
       id="path823"
       style="fill:#000000;stroke:none"
       transform="scale(0.8)"
       d="m 358.6875,105.6875 c -11.0423,11.95104 -0.0346,61.12295 -22.84375,107.21875 -11.82513,-12.61346 -16.56692,-36.26863 -29.96875,-48.09375 7.07046,18.13186 -12.62633,16.55766 -5.53125,79.625 -10.70725,-2.67681 -11.03725,-7.08846 -34.6875,-35.46875 4.40353,27.52204 1.60663,44.94217 7.125,75.6875 0,0 -5.70036,-1.20109 -33.125,-21.3125 8.90084,29.98175 -6.64874,93.11169 28.78125,137.75 L 268.3125,401 c 2.72662,40.394 31.19994,73.76178 69.125,83.84375 H 268.90625 V 513.875 h 191.125 V 484.84375 H 385.5 c 34.31242,-9.12298 60.86623,-37.31555 67.625,-72.53125 v -0.0312 c 9.39301,-15.01304 51.40412,-63.61206 19.09375,-141.8125 0,0 -9.4793,17.37784 -26.8125,22.0625 0,0 22.20763,-37.01824 3.9375,-67 0,0 -5.35488,21.90682 -23.625,22.84375 0,0 8.89287,-46.72414 -15,-76.46875 -8.67176,19.70855 5.19251,27.87556 -23.65625,44.15625 -3.94686,-60.72292 -16.54987,-70.95791 -28.375,-110.375 z M 352.375,238.125 c 11.01517,6.77856 18.93899,18.4373 21.34375,40.3125 1.05774,9.62189 4.65443,15.13583 7.28125,24.90625 -6.29922,-1.34256 -12.83332,-2.0625 -19.53125,-2.0625 -8.18497,0 -16.11998,1.04974 -23.6875,3.03125 -1.67751,-31.86822 15.00282,-24.87128 14.59375,-66.1875 z M 312.1875,261 c 0,0 4.40898,27.77921 15.65625,46.53125 -7.92479,3.0634 -15.31997,7.1944 -22.03125,12.1875 -3.69493,-28.7985 4.67257,-35.31053 6.375,-58.71875 z m 97.75,14.1875 c 0,0 4.12977,27.81515 9.75,46.46875 -8.90612,-7.11682 -19.14913,-12.63435 -30.28125,-16.125 4.69142,-9.60066 11.90829,-22.24339 20.53125,-30.34375 z m -141.125,30.75 c 0,0 8.37007,8.44267 30.25,19.28125 -7.67749,6.90282 -14.19535,15.07005 -19.25,24.15625 -3.41197,-11.17507 -8.20021,-28.03871 -11,-43.4375 z m 185.28125,10.25 c 0.73429,10.28004 0.74714,35.28952 -3.9375,48.875 l 0.0312,0.46875 c -4.13898,-12.61932 -10.89159,-24.04796 -19.625,-33.65625 5.63339,-4.50221 15.21199,-11.68192 23.53125,-15.6875 z m -93.4375,10.90625 c 36.83069,10e-6 66.71875,29.91931 66.71875,66.75 0,36.83069 -29.88806,66.71875 -66.71875,66.71875 -36.83068,0 -66.71875,-29.88806 -66.71875,-66.71875 0,-36.83068 29.88806,-66.75 66.71875,-66.75 z"
       inkscape:connector-curvature="0" />
  </g>
</svg>

<?xml version="1.0" encoding="UTF-8"?>
<svg width="125" height="125" version="1.0" viewBox="0 0 93.75 93.75" xmlns="http://www.w3.org/2000/svg">
 <title>Globally Harmonized System of Classification and Labelling of Chemicals (GHS) pictogram for oxidizing substances</title>
 <g transform="matrix(.086024 0 0 .086031 21.984 21.954)">
  <path d="m25.301 289.67 264.03 264.03 264.07-264.07c-88.052-87.952-175.93-176.08-264.03-263.98z" fill="#fff"/>
  <path d="m147.66 148.01-141.66 141.66 283.33 283.33 283.38-283.38-141.64-141.64c-77.898-77.898-141.66-141.64-141.69-141.64-0.0284 0-63.8 63.752-141.72 141.67zm260.96 22.413 119.2 119.2-238.5 238.5-238.38-238.51 119.2-119.2c65.557-65.557 119.21-119.19 119.24-119.19 0.0283 0 53.689 53.642 119.25 119.2z" fill="#f00"/>
  <path transform="scale(.8)" d="m358.69 105.69c-11.042 11.951-0.0346 61.123-22.844 107.22-11.825-12.613-16.567-36.269-29.969-48.094 7.0705 18.132-12.626 16.558-5.5312 79.625-10.707-2.6768-11.037-7.0885-34.688-35.469 4.4035 27.522 1.6066 44.942 7.125 75.688 0 0-5.7004-1.2011-33.125-21.312 8.9008 29.982-6.6487 93.112 28.781 137.75l-0.125-0.09375c2.7266 40.394 31.2 73.762 69.125 83.844h-68.531v29.031h191.12v-29.031h-74.531c34.312-9.123 60.866-37.316 67.625-72.531v-0.0312c9.393-15.013 51.404-63.612 19.094-141.81 0 0-9.4793 17.378-26.812 22.062 0 0 22.208-37.018 3.9375-67 0 0-5.3549 21.907-23.625 22.844 0 0 8.8929-46.724-15-76.469-8.6718 19.709 5.1925 27.876-23.656 44.156-3.9469-60.723-16.55-70.958-28.375-110.38zm-6.3125 132.44c11.015 6.7786 18.939 18.437 21.344 40.312 1.0577 9.6219 4.6544 15.136 7.2812 24.906-6.2992-1.3426-12.833-2.0625-19.531-2.0625-8.185 0-16.12 1.0497-23.688 3.0312-1.6775-31.868 15.003-24.871 14.594-66.188zm-40.188 22.875s4.409 27.779 15.656 46.531c-7.9248 3.0634-15.32 7.1944-22.031 12.188-3.6949-28.798 4.6726-35.311 6.375-58.719zm97.75 14.188s4.1298 27.815 9.75 46.469c-8.9061-7.1168-19.149-12.634-30.281-16.125 4.6914-9.6007 11.908-22.243 20.531-30.344zm-141.12 30.75s8.3701 8.4427 30.25 19.281c-7.6775 6.9028-14.195 15.07-19.25 24.156-3.412-11.175-8.2002-28.039-11-43.438zm185.28 10.25c0.73429 10.28 0.74714 35.29-3.9375 48.875l0.0312 0.46875c-4.139-12.619-10.892-24.048-19.625-33.656 5.6334-4.5022 15.212-11.682 23.531-15.688zm-93.438 10.906c36.831 1e-5 66.719 29.919 66.719 66.75s-29.888 66.719-66.719 66.719c-36.831 0-66.719-29.888-66.719-66.719 0-36.831 29.888-66.75 66.719-66.75z"/>
 </g>
</svg>
